X: 052083
T: Ebbing Tide (The)
C: Joe Liddy
Z: BB
S: "The Leitrim Fiddler" (Dublin 1981)
L: 1/8
M: 6/8
R: jig
Q: 1/4 = 170
K: Edor
A/F/ | EFD EDE | GAB ABd | Bee ded | BAF DEF | 
EFD EDE | GAB def | edB dAF | EFD E2 :|
A | Bee efe | dBc def | edB BAF | AFE DFA |
Bcd efe | dBA Bcd | edB dAF | EFD E2A |
Bee edB | def afd | edB Bcd | BAF EFA |
Bcd efg | edB def | edB dAF | EFD E3 ||
%%%%%%%%%%%%%%%%%%%%%
